X:1
T:Sick Tune, The
T:Captain Car
M:C
L:1/8
K:Dmin
d2d2f4 | A2A2c4 | d2d2f2 gf | ed e2 d4 :|
|: c3A c2B2 | A2G2F2A2 | Bc d2d2^c2 | d8 :|

